X:3362
T:Contentment is Wealth
M:4/4
L:1/8
S:Dianna Boullier, Bangor (fiddle)
R:Reel
D:Radio Na Gaeltachta
N:As played
H:Played with 24 and 25 as a set
Z:Bernie Stocks
K:D
+D3A,3+d cAAB | cded cAGE | (3.D.D.DDd cAAB | {c}BAGE {G}EDDA | 
EAAB B-=cAB | cded cAAg | f-age dged |1 cAGE {G}EDCE :|2 cAGE {G}EDDc || 
c-d2e fefg | af{a}fe dcAG | Ad(3.d.d.d fded | cAAG EFGE |
c-d2e {a}fefg | af{a}fe defg | (3.a.a.fge faed |1 cAGE {G}EDDc :|2 cAGE {G}EDCE ||


